src/dark/hiso font dark_g.svg

<svg xmlns="http://www.w3.org/2000/svg" width="90" height="126" viewBox="0 0 90 126"><path fill="#000101" d="M36 45l36-18-36-18-36 18v72l36 18 36-18v-36l-36-18zm-3-1.85v69l-30-15v-68.3l33-16.5 29.29 14.65-32.29 16.15zm32.3 55.85l-29.3-14.65v-3.35l32.65 16.32-3.35 1.68zm-11.3-27l-18-9v-14.65l32.65 16.33-14.65 7.32z"/></svg>

<svg xmlns="http://www.w3.org/2000/svg" width="90" height="126"><path fill="#000101" d="M36 45l36-18L36 9 0 27v72l36 18 36-18V63L36 45zm-3-1.85v69l-30-15v-68.3l33-16.5L65.29 27 33 43.15zM65.3 99L36 84.35V81l32.65 16.32L65.3 99zM54 72l-18-9V48.35l32.65 16.33L54 72z"/></svg>
